chinarailways.svg

<svg viewBox="0 0 24 24" xmlns="http://www.w3.org/2000/svg"><path d="M15.6416 18.6404C18.9543 16.9561 20.6796 13.2198 19.8136 9.6059C18.9476 5.99197 15.7162 3.44348 12 3.44348C8.28377 3.44348 5.05243 5.99197 4.18642 9.6059C3.32042 13.2198 5.04575 16.9561 8.35837 18.6404L6.88164 20.5715C3.06822 18.425 0.999199 14.1272 1.69983 9.80758C2.40046 5.48801 5.72189 2.06446 10.0183 1.23339C9.97809 0.950424 10.0557 0.663364 10.2331 0.439231C10.4104 0.215099 10.6719 0.073512 10.9565 0.0475295C11.6507-0.0158434 12.3493-0.0158429 13.0435 0.0475294C13.3281 0.0735115 13.5896 0.215098 13.7669 0.439231C13.9443 0.663364 14.0219 0.950424 13.9817 1.23339C18.2781 2.06446 21.5995 5.48801 22.3002 9.80758C23.0008 14.1272 20.9318 18.425 17.1184 20.5715L15.6416 18.6404ZM18.4471 22.6807C18.6422 22.7197 18.7826 22.891 18.7826 23.09L18.7826 24L5.21739 24L5.21739 23.09C5.21739 22.891 5.35783 22.7197 5.55293 22.6807L9.99085 21.7931C10.6737 21.6566 11.1652 21.057 11.1652 20.3606L11.1652 14.4268C11.1652 13.961 10.8564 13.5515 10.4084 13.4235L8.34783 12.8348L8.34783 10.9388C8.34783 10.1767 8.93365 9.54266 9.69337 9.4825C11.2287 9.3609 12.7713 9.36091 14.3066 9.4825C15.0663 9.54266 15.6522 10.1767 15.6522 10.9388L15.6522 12.8348L13.5916 13.4235C13.1436 13.5515 12.8348 13.961 12.8348 14.4268L12.8348 20.3606C12.8348 21.057 13.3263 21.6566 14.0092 21.7931L18.4471 22.6807Z" fill="#e60012"/></svg>

<svg viewBox="0 0 24 24" xmlns="http://www.w3.org/2000/svg"><path d="M15.642 18.64a8.035 8.035 0 1 0-7.284 0l-1.476 1.931a10.435 10.435 0 0 1 3.136-19.338 1.043 1.043 0 0 1 .938-1.185 11.479 11.479 0 0 1 2.088 0 1.043 1.043 0 0 1 .938 1.185 10.435 10.435 0 0 1 3.136 19.338l-1.476-1.93Zm2.805 4.04c.195.04.336.211.336.41V24H5.217v-.91c0-.199.14-.37.336-.41l4.438-.887a1.46 1.46 0 0 0 1.174-1.432v-5.934c0-.466-.309-.875-.757-1.003l-2.06-.59V10.94a1.46 1.46 0 0 1 1.345-1.457 29.216 29.216 0 0 1 4.614 0 1.46 1.46 0 0 1 1.345 1.457v1.896l-2.06.588a1.043 1.043 0 0 0-.757 1.004v5.934a1.46 1.46 0 0 0 1.174 1.432l4.438.888Z" fill="#e60012"/></svg>
